X: 30533
T: On The Banks Of Helicon
R: reel
M: 4/4
K: Gmajor
|:G2|G2 d2 d2 c2|B3 A G2 d2|ef g2 f2 e2|d3 c B2 G2|
c2 B2 AG A2|G4 G2:|:G2|c3 B c2 d2|e3 d c2 e=f|e2 d2 d2 ^c2|
d6:|:d2|B3 A G2 c2|B3 A G2 c2|B2 G2 A2 A2|G6:|

